icon-themes/sifr_svg/cmd/lc_symbolshapes.bracket-pair.svg

<svg viewBox="0 0 24 24" xmlns="http://www.w3.org/2000/svg"><path d="m9 2c-1.66 0-3 1.34-3 3v14c0 1.66 1.34 3 3 3h1v-2h-1c-.55 0-1-.45-1-1v-14c0-.55.45-1 1-1h1v-2zm5 0v2h1c.55 0 1 .45 1 1v14c0 .55-.45 1-1 1h-1v2h1c1.66 0 3-1.34 3-3v-14c0-1.66-1.34-3-3-3z" fill="#555753"/></svg>

<svg viewBox="0 0 24 24" xmlns="http://www.w3.org/2000/svg">
  <path
     style="fill:#555753"
     d="M 9,2 C 7.34,2 6,3.34 6,5 v 14 c 0,1.66 1.34,3 3,3 h 1 V 20 H 9 C 8.45,20 8,19.55 8,19 V 5 C 8,4.45 8.45,4 9,4 h 1 V 2 Z m 5,0 v 2 h 1 c 0.55,0 1,0.45 1,1 v 14 c 0,0.55 -0.45,1 -1,1 h -1 v 2 h 1 c 1.66,0 3,-1.34 3,-3 V 5 C 18,3.34 16.66,2 15,2 Z"
     />
</svg>
